img/github-5.svg

<svg fill="none" height="25" viewBox="0 0 24 25" width="24" xmlns="http://www.w3.org/2000/svg" xmlns:xlink="http://www.w3.org/1999/xlink"><clipPath id="a"><path d="m0 .5h24v24h-24z"/></clipPath><g clip-path="url(#a)"><path clip-rule="evenodd" d="m12 .5c-6.62577 0-12 5.50943-12 12.3019 0 5.4339 3.46012 10.0377 8.17178 11.6981.58896.0755.80982-.3019.80982-.6038s0-1.0566 0-2.1132c-3.31289.7547-4.04908-1.6604-4.04908-1.6604-.51534-1.4339-1.32516-1.8113-1.32516-1.8113-1.10429-.7547.07362-.7547.07362-.7547 1.17792.0755 1.84049 1.283 1.84049 1.283 1.1043 1.8868 2.79755 1.3585 3.46013 1.0566.07361-.8302.44171-1.3585.73619-1.6603-2.65031-.3019-5.44785-1.3585-5.44785-6.1133 0-1.3584.44172-2.41505 1.25153-3.32071-.07362-.22642-.51534-1.50944.14724-3.16981 0 0 1.03068-.30189 3.31289 1.28301.95705-.30188 1.9877-.37735 3.0184-.37735s2.0613.15094 3.0184.37735c2.2822-1.5849 3.3129-1.28301 3.3129-1.28301.6626 1.66037.2208 2.94339.1472 3.24528.7362.83019 1.2516 1.96224 1.2516 3.32074 0 4.7547-2.7976 5.7359-5.4479 6.0378.4417.3773.8098 1.132.8098 2.2641v3.3962c0 .3019.2209.6793.8098.6038 4.7853-1.6604 8.1718-6.2642 8.1718-11.6981-.0736-6.79247-5.4478-12.3019-12.0736-12.3019z" fill="#000" fill-rule="evenodd"/></g></svg>

<svg width="24" height="25" viewBox="0 0 24 25" fill="none" xmlns="http://www.w3.org/2000/svg">
<g clip-path="url(#clip0_3288_2109)">
<path fill-rule="evenodd" clip-rule="evenodd" d="M12 0.5C5.37423 0.5 0 6.00943 0 12.8019C0 18.2358 3.46012 22.8396 8.17178 24.5C8.76074 24.5755 8.9816 24.1981 8.9816 23.8962C8.9816 23.5943 8.9816 22.8396 8.9816 21.783C5.66871 22.5377 4.93252 20.1226 4.93252 20.1226C4.41718 18.6887 3.60736 18.3113 3.60736 18.3113C2.50307 17.5566 3.68098 17.5566 3.68098 17.5566C4.8589 17.6321 5.52147 18.8396 5.52147 18.8396C6.62577 20.7264 8.31902 20.1981 8.9816 19.8962C9.05521 19.066 9.42331 18.5377 9.71779 18.2359C7.06748 17.934 4.26994 16.8774 4.26994 12.1226C4.26994 10.7642 4.71166 9.70755 5.52147 8.80189C5.44785 8.57547 5.00613 7.29245 5.66871 5.63208C5.66871 5.63208 6.69939 5.33019 8.9816 6.91509C9.93865 6.61321 10.9693 6.53774 12 6.53774C13.0307 6.53774 14.0613 6.68868 15.0184 6.91509C17.3006 5.33019 18.3313 5.63208 18.3313 5.63208C18.9939 7.29245 18.5521 8.57547 18.4785 8.87736C19.2147 9.70755 19.7301 10.8396 19.7301 12.1981C19.7301 16.9528 16.9325 17.934 14.2822 18.2359C14.7239 18.6132 15.092 19.3679 15.092 20.5C15.092 22.1604 15.092 23.4434 15.092 23.8962C15.092 24.1981 15.3129 24.5755 15.9018 24.5C20.6871 22.8396 24.0736 18.2358 24.0736 12.8019C24 6.00943 18.6258 0.5 12 0.5Z" fill="black"/>
</g>
<defs>
<clipPath id="clip0_3288_2109">
<rect width="24" height="24" fill="white" transform="translate(0 0.5)"/>
</clipPath>
</defs>
</svg>
